svgs/regular/vials.svg

<svg xmlns="http://www.w3.org/2000/svg" viewBox="0 0 512 512"><!--! Font Awesome Pro 6.6.0 by @fontawesome - https://fontawesome.com License - https://fontawesome.com/license (Commercial License) Copyright 2024 Fonticons, Inc. --><path d="M0 56C0 42.7 10.7 32 24 32l32 0 112 0 32 0c13.3 0 24 10.7 24 24s-10.7 24-24 24l-8 0 0 320c0 44.2-35.8 80-80 80s-80-35.8-80-80L32 80l-8 0C10.7 80 0 69.3 0 56zM80 80l0 176 64 0 0-176L80 80zM288 56c0-13.3 10.7-24 24-24l32 0 112 0 32 0c13.3 0 24 10.7 24 24s-10.7 24-24 24l-8 0 0 320c0 44.2-35.8 80-80 80s-80-35.8-80-80l0-320-8 0c-13.3 0-24-10.7-24-24zm80 24l0 176 64 0 0-176-64 0z"/></svg>

<svg xmlns="http://www.w3.org/2000/svg" viewBox="0 0 512 512"><!--! Font Awesome Pro 6.4.0 by @fontawesome - https://fontawesome.com License - https://fontawesome.com/license (Commercial License) Copyright 2023 Fonticons, Inc. --><path d="M0 56C0 42.7 10.7 32 24 32H56 168h32c13.3 0 24 10.7 24 24s-10.7 24-24 24h-8V400c0 44.2-35.8 80-80 80s-80-35.8-80-80V80H24C10.7 80 0 69.3 0 56zM80 80V256h64V80H80zM288 56c0-13.3 10.7-24 24-24h32H456h32c13.3 0 24 10.7 24 24s-10.7 24-24 24h-8V400c0 44.2-35.8 80-80 80s-80-35.8-80-80V80h-8c-13.3 0-24-10.7-24-24zm80 24V256h64V80H368z"/></svg>
